X: 1
T: Down the Lane
R: Jig
C: Niall Vallely
D: Nomos "Set You Free"
S: Robbie <mgpig:aug.com>
M: 6/8
K: D
| afd afd | cde Ace | gfe bag | fge dfg \
| afd afd | cde Ace | gfe bag | fge d3 :|
|: ece Ace | ~f3 def | ~g3 efg | ~f3 def \
| ece Ace | f3 def | gfe bag | fge d3 :|
